X: 30
T: Connaughtman's Rambles, The
Z: Stuart Morison
S: https://thesession.org/tunes/19#setting53666
R: jig
M: 6/8
L: 1/8
K: Dmaj
|:FAA dAA|BAB dAG|FAA dfe|dBB BAG|
FAA dAA|BAB def|gfe f2e|1 dBB BAG:|2 dBB B2A||
|:fbb faa|fed efg|fbb faa|fed e2 g|
fbb faa|fed def|gfe f2e|1 dBB B2A:|2 dBB BAG||

%-------------------- TUNE SEPARATOR --------------------%

